X:2
T:I Love You
C:Cole Porter
L:1/4
M:C
I:linebreak $
K:F
"Dm" c ||"Gø" c2 _D2- |"Gb7" D2 B A |"F" ^G A A2- |"F#o" A2 z A |"Gm" A2 B,2- |$
"C7" B,2 (3G F E |"F" D4- |"Dm" D3 c |"Gø" c2 _D2- |"Gb7" D3/2 B/ B3/2 A/ |$"F" ^G3/2 A/ A2- |
"Bm" A2"E7" ^G A ||[K:A]"C#m" B3/2 c/"F#7" c2 |"Bm" d3 e "E7" x4|$"A" e4- |"F#m" e2 z e ||
[K:F]"Gm" f3/2 f/ f2- |"C7" f e (3e d c |"F" e3/2 e/ e2- |$"Bb" e z c d |"Aø" _e3/2 e/ e2- |
"D7" e d (3c B A |"Gm" G4- |"C7" G2 z c |"Gø" c2 _D2- |$"C7" D2 B A |"A7" ^G3/2 A/ A2- |
"D7" A2 B c |"G7" ^c3/2 d/ d D |"Gm" A2"C7" A2 |"F" F4 |]

